assets/images/logo.svg

<?xml version="1.0" encoding="UTF-8" standalone="no"?>
<svg width="512px" height="463px" viewBox="0 0 512 463" version="1.1" xmlns="http://www.w3.org/2000/svg" xmlns:xlink="http://www.w3.org/1999/xlink" xmlns:sketch="http://www.bohemiancoding.com/sketch/ns">
    <!-- Generator: Sketch 3.2.2 (9983) - http://www.bohemiancoding.com/sketch -->
    <title>Rectangle 13 + Sass-logo + Group + News + Group 2</title>
    <desc>Created with Sketch.</desc>
    <defs></defs>
    <g id="Page-1" stroke="none" stroke-width="1" fill="none" fill-rule="evenodd" sketch:type="MSPage">
        <g id="Rectangle-13-+-Sass-logo-+-Group-+-News-+-Group-2" sketch:type="MSLayerGroup" transform="translate(-32.000000, -16.000000)">
            <g id="Rectangle-13-+-Sass-logo-+-Group-+-News">
                <g id="Sass-logo-+-Group-+-News" transform="translate(64.000000, 127.000000)">
                    <g id="Sass-logo" sketch:type="MSShapeGroup">
                        <g id="Group">
                            <rect id="Rectangle-2" fill="#DADBDF" x="0" y="16" width="457" height="336"></rect>
                            <rect id="Rectangle-3" fill-opacity="0.833333333" fill="#6B717F" x="8" y="24" width="457" height="320"></rect>
                            <path d="M21.5,330.5 L0.5,351.5" id="Line" stroke="#808C99" stroke-linecap="square"></path>
                            <rect id="Rectangle-1" fill="#DADBDF" x="16" y="0" width="464" height="336"></rect>
                            <path d="M16,336 L480,336 L463.909091,352 L0,352 L16,336 Z" id="Rectangle-4" fill="#DADBDF"></path>
                        </g>
                    </g>
                    <g id="Group" transform="translate(48.000000, 32.000000)" fill="#B37399" sketch:type="MSShapeGroup" fill-opacity="0.200000003">
                        <rect id="Rectangle-5" x="240" y="80" width="160" height="208"></rect>
                        <rect id="Rectangle-6" x="32" y="152" width="192" height="8"></rect>
                        <rect id="Rectangle-21" x="32" y="136" width="192" height="8"></rect>
                        <rect id="Rectangle-20" x="0" y="80" width="224" height="32"></rect>
                        <rect id="Rectangle-7" x="0" y="168" width="224" height="8"></rect>
                        <rect id="Rectangle-8" x="0" y="184" width="224" height="8"></rect>
                        <rect id="Rectangle-9" x="0" y="200" width="224" height="8"></rect>
                        <rect id="Rectangle-10" x="96" y="216" width="128" height="8"></rect>
                        <rect id="Rectangle-15" x="96" y="232" width="128" height="8"></rect>
                        <rect id="Rectangle-16" x="96" y="248" width="128" height="8"></rect>
                        <rect id="Rectangle-17" x="96" y="264" width="128" height="8"></rect>
                        <rect id="Rectangle-18" x="0" y="280" width="224" height="8"></rect>
                        <rect id="Rectangle-19" x="0" y="216" width="80" height="56"></rect>
                        <rect id="Rectangle-22" x="0" y="0" width="64" height="8"></rect>
                        <rect id="Rectangle-23" x="80" y="0" width="128" height="8"></rect>
                        <rect id="Rectangle-24" x="224" y="0" width="128" height="8"></rect>
                        <rect id="Rectangle-25" x="368" y="0" width="34" height="8"></rect>
                        <rect id="Rectangle-14" x="0" y="56" width="400" height="8"></rect>
                        <rect id="Rectangle-12" x="0" y="16" width="400" height="32"></rect>
                    </g>
                    <text id="NEWS" sketch:type="MSTextLayer" font-family="American Typewriter" font-size="128" font-weight="normal" letter-spacing="-1.60000026" fill="#6B717F">
                        <tspan x="77" y="287">NEW</tspan>
                        <tspan x="374.919999" y="287">S</tspan>
                    </text>
                </g>
            </g>
            <g id="Group-2" transform="translate(32.000000, 16.000000)" fill="#CC6699" sketch:type="MSShapeGroup">
                <g id="Clipped">
                    <path d="M311.216248,241.892749 C309.823315,240.929635 310.054936,237.816837 314.636066,228.121849 C316.434536,224.315328 320.537996,217.906764 327.671767,211.782384 C328.498069,214.301119 329.002186,216.716302 328.98776,218.964866 C328.895592,233.965158 317.878761,239.567105 311.216248,241.892749 L311.216248,241.892749 Z M252.575228,254.878832 C250.707832,255.827932 248.99592,256.424331 248.200073,255.964185 C247.616612,255.625499 248.970273,254.375864 248.970273,254.375864 C248.970273,254.375864 258.492386,244.425499 262.242404,239.894112 C264.423971,237.259367 266.95337,234.131776 269.709581,230.633577 C269.732022,230.983163 269.744044,231.329635 269.744044,231.672214 C269.715993,243.593966 257.861639,251.643017 252.575228,254.878832 L252.575228,254.878832 Z M176.454426,219.594745 C172.049617,230.027056 162.830455,256.716302 157.219454,255.286034 C152.402696,254.0582 149.469362,233.769732 156.257705,213.802822 C159.674317,203.752019 166.973188,191.742287 171.260984,187.080876 C178.163934,179.579951 185.764153,177.126618 187.61071,180.167786 C189.96459,184.042822 179.216248,213.055377 176.454426,219.594745 L176.454426,219.594745 Z M84.3189071,280.443017 C71.6719126,293.846423 54.0029872,298.911922 46.4260109,294.645255 C38.2447359,290.036788 41.4850273,270.304234 57.0052459,256.080973 C66.4648452,247.412944 78.6766485,239.429294 86.7777778,234.511727 C88.6211293,233.434161 91.3300546,231.85129 94.6216393,229.935182 L95.4751913,229.465693 L95.4631694,229.44545 L97.4219308,228.307153 C103.068998,248.552019 97.5934426,266.375474 84.3189071,280.443017 L84.3189071,280.443017 Z M378.622004,184.05528 C363.278106,184.133917 349.988342,187.712311 338.848087,193.046423 C334.773479,185.146861 330.649982,178.197178 329.957523,173.029684 C329.148852,166.997178 328.211949,163.39854 329.188124,156.212165 C330.1651,149.025791 334.444882,138.849635 334.382368,138.087397 C334.319854,137.325158 333.422222,133.664234 324.572532,133.601946 C315.72204,133.540438 308.151475,135.255669 307.261056,137.526034 C306.369836,139.796399 304.665938,144.905499 303.60561,150.232603 C302.055592,158.028613 285.935883,185.832019 276.783242,200.377616 C273.7898,194.700925 271.244372,189.695377 270.713807,185.737032 C269.905938,179.704526 268.968233,176.105888 269.944408,168.918735 C270.921384,161.733139 275.201166,151.555426 275.138652,150.793187 C275.076138,150.030949 274.179308,146.370803 265.328816,146.308516 C256.478324,146.247007 248.90776,147.962238 248.017341,150.232603 C247.12612,152.502968 246.174791,157.807494 244.361894,162.939173 C242.548998,168.07163 221.121239,214.451387 215.509435,226.472798 C212.649836,232.597956 210.161311,237.518637 208.404517,240.879805 L208.393297,240.861119 L208.098361,241.46219 C206.594827,244.322725 205.699599,245.905596 205.699599,245.905596 L205.726047,245.964769 C204.533479,248.065401 203.255155,250.016545 202.622004,250.016545 C202.179599,250.016545 201.293989,244.42472 202.815155,236.749392 C206.003352,220.660633 213.662878,195.56983 213.58674,194.705596 C213.546667,194.262579 215.010128,189.890803 208.584845,187.604866 C202.339089,185.384331 200.115046,189.088078 199.545209,189.099757 C198.993005,189.111436 198.582659,190.408564 198.582659,190.408564 C198.582659,190.408564 205.540911,162.192506 185.310528,162.192506 C172.662732,162.192506 155.137268,175.633285 146.503971,187.816642 C141.055665,190.70365 129.396867,196.886423 117.027177,203.488856 C112.276138,206.023942 107.428124,208.615864 102.830965,211.076204 C102.518397,210.739854 102.20663,210.402725 101.885246,210.069489 C77.3550455,184.644672 32.007796,166.661606 33.9312933,132.480779 C34.6309654,120.054501 39.0774499,87.3350852 121.066521,47.6457421 C188.228634,15.1334307 241.995191,24.0801946 251.287286,43.9085158 C264.56102,72.2359124 222.55184,124.885645 152.803424,132.480779 C126.228707,135.374793 112.236066,125.369927 108.755337,121.642822 C105.091876,117.720292 104.545282,117.543552 103.177195,118.279319 C100.949144,119.479124 102.361311,122.942287 103.177195,125.006326 C105.260182,130.271922 113.805319,139.608759 128.375009,144.253041 C141.191913,148.339075 172.392641,150.583747 210.123643,136.404866 C252.384481,120.524769 285.383679,76.3491971 275.690856,39.4238443 C265.833734,1.86861314 201.735592,-10.4774696 141.070893,10.4603406 C104.966047,22.9208759 65.8813843,42.4782482 37.7790893,68.0136253 C4.36473588,98.376253 -0.963351548,124.802336 1.23183971,135.844282 C9.03322404,175.078151 64.6984335,200.627543 86.9893625,219.562822 L83.91898,221.208759 C72.7434608,226.579465 30.3111111,248.151825 19.6974135,270.945012 C7.65872495,296.799611 21.6144991,315.349489 30.8536976,317.847202 C59.4809472,325.585596 88.8567577,311.666764 104.643862,288.791046 C120.42776,265.920779 118.500255,236.141314 111.255883,222.547932 L110.974572,222.046521 C113.859818,220.387348 116.802769,218.700146 119.719271,217.036302 C125.407213,213.791922 130.990164,210.764769 135.835774,208.203212 C133.125246,215.419951 131.139235,224.070073 130.106157,236.56253 C128.89275,251.238929 135.084007,270.209246 143.185938,277.672798 C146.753224,280.958443 151.045027,281.035523 153.765173,281.035523 C163.192714,281.035523 167.494936,273.416253 172.230747,264.404866 C178.04051,253.352798 183.194681,240.486618 183.194681,240.486618 C183.194681,240.486618 176.725319,275.242822 194.351767,275.242822 C200.773843,275.242822 207.23439,267.152506 210.111621,263.027543 L210.123643,263.096837 L210.618142,262.28944 C211.284954,261.299075 211.662441,260.668418 211.662441,260.668418 L211.696102,260.489343 C214.277596,256.134696 220.003206,246.20691 228.590018,229.835523 C239.683789,208.683601 250.324736,182.185888 250.324736,182.185888 C250.324736,182.185888 251.314536,188.664526 254.55643,199.377129 C256.463898,205.680584 260.516066,212.648175 263.713078,219.330024 C261.139599,222.798637 259.557523,224.791046 259.557523,224.791046 L259.600801,224.894599 C257.544262,227.546472 255.23847,230.408564 252.826084,233.199027 C244.070164,243.330024 233.640801,254.899075 232.243862,258.238443 C230.599271,262.172652 230.987978,265.066667 234.167359,267.394647 C236.489982,269.095085 240.624699,269.359027 244.938944,269.076399 C252.80765,268.56253 258.344117,266.666667 261.075483,265.512019 C265.333625,264.049051 270.29224,261.748321 274.946302,258.425304 C283.535519,252.290803 288.716138,243.515328 288.218434,231.890998 C287.942732,225.484769 285.839709,219.135377 283.179672,213.141022 C283.95949,212.052555 284.740911,210.953966 285.524736,209.841363 C299.065355,190.610998 309.568452,169.479319 309.568452,169.479319 C309.568452,169.479319 310.558251,175.957178 313.800947,186.67056 C315.44153,192.093431 318.678616,198.00837 321.589508,203.810414 C308.857559,213.860438 300.961603,225.537713 298.219818,233.199027 C293.150601,247.367007 297.12102,253.787251 304.56816,255.248662 C307.941494,255.911241 312.705355,254.409343 316.289472,252.935474 C320.74878,251.498978 326.107322,249.106375 331.112423,245.532652 C339.701639,239.398151 347.959854,230.807981 347.462149,219.184428 C347.234536,213.89236 345.75745,208.64 343.753005,203.593966 C354.545428,199.226861 368.518834,196.798443 386.316794,198.817324 C424.498215,203.148613 431.988634,226.308516 430.557231,236.001946 C429.125027,245.696156 421.116066,251.024039 418.438397,252.633382 C415.76153,254.241946 414.944044,254.800195 415.169253,255.996886 C415.494645,257.736253 416.732896,257.669294 419.015446,257.295572 C422.158761,256.780146 439.065501,249.410803 439.789217,231.518054 C440.708488,208.801946 418.305355,183.849732 378.622004,184.05528 L378.622004,184.05528 Z" id="Shape"></path>
                </g>
            </g>
        </g>
    </g>
</svg>

<svg width="512" height="463" viewBox="0 0 512 463" xmlns="http://www.w3.org/2000/svg" xmlns:sketch="http://www.bohemiancoding.com/sketch/ns"><title>Rectangle 13 + Sass-logo + Group + News + Group 2</title><desc>Created with Sketch.</desc><g sketch:type="MSLayerGroup" fill="none"><g><g id="Group" sketch:type="MSShapeGroup"><path fill="#DADBDF" d="M32 127h457v336h-457z"/><path fill-opacity=".833" fill="#6B717F" d="M40 135h457v320h-457z"/><path d="M53.5 441.5l-21 21" stroke="#808C99" stroke-linecap="square"/><path fill="#DADBDF" d="M48 111h464v336h-464z"/><path d="M48 447h464l-16.091 16h-463.909l16-16z" fill="#DADBDF"/></g><g fill="#B37399" sketch:type="MSShapeGroup" fill-opacity=".2"><path d="M320 223h160v208h-160z"/><path d="M112 295h192v8h-192z"/><path d="M112 279h192v8h-192z"/><path d="M80 223h224v32h-224z"/><path d="M80 311h224v8h-224z"/><path d="M80 327h224v8h-224z"/><path d="M80 343h224v8h-224z"/><path d="M176 359h128v8h-128z"/><path d="M176 375h128v8h-128z"/><path d="M176 391h128v8h-128z"/><path d="M176 407h128v8h-128z"/><path d="M80 423h224v8h-224z"/><path d="M80 359h80v56h-80z"/><path d="M80 143h64v8h-64z"/><path d="M160 143h128v8h-128z"/><path d="M304 143h128v8h-128z"/><path d="M448 143h34v8h-34z"/><path d="M80 199h400v8h-400z"/><path d="M80 159h400v32h-400z"/></g><text sketch:type="MSTextLayer" font-family="American Typewriter" font-size="128" letter-spacing="-1.6" fill="#6B717F" transform="translate(-32 -16) translate(64 127)"><tspan x="77" y="287">NEW</tspan><tspan x="374.92" y="287">S</tspan></text></g><path d="M311.216 241.893c-1.393-.963-1.161-4.076 3.42-13.771 1.798-3.807 5.902-10.215 13.036-16.339.826 2.519 1.33 4.934 1.316 7.182-.092 15-11.109 20.602-17.772 22.928zm-58.641 12.986c-1.867.949-3.579 1.545-4.375 1.085-.583-.339.77-1.588.77-1.588s9.522-9.95 13.272-14.482c2.182-2.635 4.711-5.762 7.467-9.261.022.35.034.696.034 1.039-.028 11.922-11.882 19.971-17.169 23.207zm-76.121-35.284c-4.405 10.432-13.624 37.122-19.235 35.691-4.817-1.228-7.75-21.516-.962-41.483 3.417-10.051 10.715-22.061 15.003-26.722 6.903-7.501 14.503-9.954 16.35-6.913 2.354 3.875-8.394 32.888-11.156 39.427zm-92.136 60.848c-12.647 13.403-30.316 18.469-37.893 14.202-8.181-4.608-4.941-24.341 10.579-38.564 9.46-8.668 21.671-16.652 29.773-21.569 1.843-1.078 4.552-2.66 7.844-4.577l.854-.469-.012-.02 1.959-1.138c5.647 20.245.172 38.068-13.103 52.136zm294.303-96.388c-15.344.079-28.634 3.657-39.774 8.991-4.075-7.9-8.198-14.849-8.891-20.017-.809-6.033-1.746-9.631-.769-16.818.977-7.186 5.257-17.363 5.194-18.125-.063-.762-.96-4.423-9.81-4.485-8.85-.062-16.421 1.654-17.311 3.924-.891 2.27-2.595 7.379-3.655 12.707-1.55 7.796-17.67 35.599-26.822 50.145-2.993-5.677-5.539-10.682-6.069-14.641-.808-6.033-1.746-9.631-.769-16.818.977-7.186 5.257-17.363 5.194-18.126-.063-.762-.959-4.422-9.81-4.485-8.85-.062-16.421 1.654-17.311 3.924-.891 2.27-1.843 7.575-3.655 12.707-1.813 5.132-23.241 51.512-28.852 63.534-2.86 6.125-5.348 11.046-7.105 14.407l-.011-.019-.295.601c-1.504 2.861-2.399 4.443-2.399 4.443l.026.059c-1.193 2.101-2.471 4.052-3.104 4.052-.442 0-1.328-5.592.193-13.267 3.188-16.089 10.848-41.18 10.772-42.044-.04-.443 1.423-4.815-5.002-7.101-6.246-2.221-8.47 1.483-9.04 1.495-.552.012-.963 1.309-.963 1.309s6.958-28.216-13.272-28.216c-12.648 0-30.173 13.441-38.807 25.624-5.448 2.887-17.107 9.07-29.477 15.672-4.751 2.535-9.599 5.127-14.196 7.587-.313-.336-.624-.673-.946-1.007-24.53-25.425-69.877-43.408-67.954-77.589.7-12.426 5.146-45.146 87.135-84.835 67.162-32.512 120.929-23.566 130.221-3.737 13.274 28.327-28.735 80.977-98.484 88.572-26.575 2.894-40.567-7.111-44.048-10.838-3.663-3.923-4.21-4.099-5.578-3.364-2.228 1.2-.816 4.663 0 6.727 2.083 5.266 10.628 14.602 25.198 19.247 12.817 4.086 44.018 6.331 81.749-7.848 42.261-15.88 75.26-60.056 65.567-96.981-9.857-37.555-73.955-49.901-134.62-28.964-36.105 12.461-75.19 32.018-103.292 57.553-33.414 30.363-38.742 56.789-36.547 67.831 7.801 39.234 63.467 64.783 85.758 83.719l-3.07 1.646c-11.176 5.371-53.608 26.943-64.222 49.736-12.039 25.855 1.917 44.404 11.156 46.902 28.627 7.738 58.003-6.18 73.79-29.056 15.784-22.87 13.856-52.65 6.612-66.243l-.281-.501c2.885-1.659 5.828-3.346 8.745-5.01 5.688-3.244 11.271-6.272 16.117-8.833-2.711 7.217-4.697 15.867-5.73 28.359-1.213 14.676 4.978 33.647 13.08 41.11 3.567 3.286 7.859 3.363 10.579 3.363 9.428 0 13.73-7.619 18.466-16.631 5.81-11.052 10.964-23.918 10.964-23.918s-6.469 34.756 11.157 34.756c6.422 0 12.883-8.09 15.76-12.215l.012.069.494-.807c.667-.99 1.044-1.621 1.044-1.621l.034-.179c2.581-4.355 8.307-14.282 16.894-30.654 11.094-21.152 21.735-47.65 21.735-47.65s.99 6.479 4.232 17.191c1.907 6.303 5.96 13.271 9.157 19.953-2.573 3.469-4.156 5.461-4.156 5.461l.043.104c-2.057 2.652-4.362 5.514-6.775 8.304-8.756 10.131-19.185 21.7-20.582 25.039-1.645 3.934-1.256 6.828 1.923 9.156 2.323 1.7 6.457 1.964 10.772 1.682 7.869-.514 13.405-2.41 16.137-3.564 4.258-1.463 9.217-3.764 13.871-7.087 8.589-6.135 13.77-14.91 13.272-26.534-.276-6.406-2.379-12.756-5.039-18.75.78-1.088 1.561-2.187 2.345-3.3 13.541-19.23 24.044-40.362 24.044-40.362s.99 6.478 4.232 17.191c1.641 5.423 4.878 11.338 7.789 17.14-12.732 10.05-20.628 21.727-23.37 29.389-5.069 14.168-1.099 20.588 6.348 22.05 3.373.663 8.137-.839 11.721-2.313 4.459-1.436 9.818-3.829 14.823-7.403 8.589-6.135 16.847-14.725 16.35-26.348-.228-5.292-1.705-10.544-3.709-15.59 10.792-4.367 24.766-6.796 42.564-4.777 38.181 4.331 45.672 27.491 44.24 37.185-1.432 9.694-9.441 15.022-12.119 16.631-2.677 1.609-3.494 2.167-3.269 3.364.325 1.739 1.564 1.672 3.846 1.299 3.143-.515 20.05-7.885 20.774-25.778.919-22.716-21.484-47.668-61.167-47.463z" fill="#c69" sketch:type="MSShapeGroup"/></g></svg>
